X: 777
T: Shengchan jieyue
L: 1/8
M: 2/4
K: F
d f d c [I:setbarnb 1]| 
B2A2 | 
G A c G | 
G3c | 
A G D F | 
G2z2 | 
ff2d | 
c d c A | 
c A G F | 
C2z2 |]

@@@ Tune index: 9651
